X:1
T:Easter Joy
T:Easter Joy
T:Scott Werdebaugh, 1995
T:Scott Werdebaugh, 1995
T:© 1995 Scott Werdebaugh &amp; New Heart Music. May be freely copied and used for Christian worship or devotions with no alterations. All other rights reserved.
C:Scott Werdebaugh, 1995
Z:© 1995 Scott Werdebaugh & New Heart Music. May be freely copied and used for
Z:Christian worship or devotions with no alterations. All other rights reserved.
%%score ( 1 2 ) 3
L:1/8
Q:1/4=180
M:3/4
K:C
V:1 treble 
V:2 treble 
V:3 bass 
V:1
"^Joyful and Light" [CE]4 [DF]2 | [EG]2 [CE]2 [EG][EG] | [FA]2 [EG]2 [DF]2 | [DG]6 | [EG]4 [DG]2 | %5
w: 1.~He is|ris- en! He is|ris- en in-|deed!|Al- le-|
w: 2.~We’re for-|giv- en! From our|sin we’re set|free!|Al- le-|
w: 3.~Spread the|joy now! Let all|know the Good|News!|Al- le-|
w: 4.~He is|com- ing! He is|com- ing a-|gain!|Al- le-|
 [CG]4 [CE]2 | [DF]2 [CE]2 C2 | [B,D]6 | [CE]4 [DF]2 | [EG]2 [CE]2 [EG][EG] | [FA]2 [EG]2 [DF]2 | %11
w: lu- ia!|Al- le- lu-|ia!|He is|ris- en! He is|ris- en in-|
w: lu- ia!|Al- le- lu-|ia!|He’s our|Sav- ior! Bless- ed|Je- sus, Our|
w: lu- ia!|Al- le- lu-|ia!|Tell the|whole world— Tell them|all God has|
w: lu- ia!|Al- le- lu-|ia!|We’ll be|with Him, al- ways|with Him in|
 [DG]6 | [EG]4 [EG]2 | [EG]2 [CE]2 [EG]2 | [FA]6 | B6 | !fermata![Ec]6"^Play 4 times" :| x6 |] %18
w: deed!|Al- le-|lu- ia! Al-|le-|lu|||
w: Lord!|Al- le-|lu- ia! Al-|le-|lu|||
w: done!|Al- le-|lu- ia! Al-|le-|lu|||
w: Heav’n!|Al- le-|lu- ia! Al-|le-|lu|||
V:2
 x6 | x6 | x6 | x6 | x6 | x6 | x4 C2 | x6 | x6 | x6 | x6 | x6 | x6 | x6 | x6 | G4 F2 | x6 :| x6 |] %18
V:3
 [C,G,]4 [B,,G,]2 | [C,C]2 [C,G,]2 [C,C]2 | [F,C]2 [E,C]2 [D,A,]2 | [G,B,]6 | [C,G,]4 [B,,G,]2 | %5
 [A,,E,]4 [C,G,]2 | [D,A,]2 [C,A,]2 [E,G,]2 | [G,,G,]6 | [C,G,]4 [B,,G,]2 | [C,C]2 [C,G,]2 [C,C]2 | %10
 [F,C]2 [C,C]2 [D,A,]2 | [G,B,]6 | [C,G,]4 [D,G,]2 | [E,G,]2 [C,G,]2 [E,G,]2 | [C,A,]6 | [D,G,]6 | %16
 !fermata![C,G,]6"^Play 4 times" :| x6 |] %18

